components/Platforms/images/python.svg

<svg sodipodi:docbase="/home/sdeibel" sodipodi:docname="logo-python-inkscape.svg" sodipodi:version=".32" xmlns:sodipodi="http://inkscape.sourceforge.net/DTD/sodipodi-0.dtd" xmlns="http://www.w3.org/2000/svg" viewBox="0 0 111.2 112.4" enable-background="new 0 0 111.2 112.4"><style type="text/css">.st0{fill:url(#path1948_1_);} .st1{fill:url(#path1950_1_);}</style><sodipodi:namedview bordercolor="#666666" borderopacity="1" gridtolerance="10" guidetolerance="10" height="40mm" id="base" objecttolerance="10" pagecolor="#ffffff" units="mm" width="210mm"/><linearGradient id="path1948_1_" gradientUnits="userSpaceOnUse" x1="-95.772" y1="89.45" x2="13.245" y2="-4.344" gradientTransform="matrix(.563 0 0 -.568 51.148 54.005)"><stop offset="0" stop-color="#5A9FD4"/><stop offset="1" stop-color="#306998"/></linearGradient><path id="path1948" class="st0" d="M54.9 0c-4.6 0-9 .4-12.8 1.1-11.3 2-13.4 6.2-13.4 13.9v10.2h26.8v3.4h-36.9c-7.8 0-14.6 4.7-16.8 13.6-2.5 10.2-2.6 16.6 0 27.2 1.9 7.9 6.5 13.6 14.2 13.6h9.2v-12.2c0-8.8 7.7-16.7 16.8-16.7h26.8c7.5 0 13.4-6.1 13.4-13.6v-25.5c0-7.3-6.1-12.7-13.4-13.9-4.5-.8-9.3-1.1-13.9-1.1zm-14.5 8.2c2.8 0 5 2.3 5 5.1s-2.3 5.1-5 5.1c-2.8 0-5-2.3-5-5.1s2.2-5.1 5-5.1z"/><linearGradient id="path1950_1_" gradientUnits="userSpaceOnUse" x1="55.391" y1="-61.112" x2="16.462" y2="-6.033" gradientTransform="matrix(.563 0 0 -.568 51.148 54.005)"><stop offset="0" stop-color="#FFD43B"/><stop offset="1" stop-color="#FFE873"/></linearGradient><path id="path1950" class="st1" d="M85.6 28.7v11.9c0 9.2-7.8 17-16.8 17h-26.7c-7.3 0-13.4 6.3-13.4 13.6v25.5c0 7.3 6.3 11.5 13.4 13.6 8.5 2.5 16.6 2.9 26.8 0 6.8-2 13.4-5.9 13.4-13.6v-10.2h-26.8v-3.4h40.2c7.8 0 10.7-5.4 13.4-13.6 2.8-8.4 2.7-16.5 0-27.2-1.9-7.8-5.6-13.6-13.4-13.6h-10.1zm-15 64.6c2.8 0 5 2.3 5 5.1s-2.3 5.1-5 5.1c-2.8 0-5-2.3-5-5.1-.1-2.8 2.2-5.1 5-5.1z"/></svg>

<?xml version="1.0" encoding="utf-8"?>
<!-- Generator: Adobe Illustrator 19.2.1, SVG Export Plug-In . SVG Version: 6.00 Build 0)  -->
<svg version="1.1"
	 id="svg2" inkscape:version="0.43" sodipodi:docbase="/home/sdeibel" sodipodi:docname="logo-python-inkscape.svg" sodipodi:version="0.32" xmlns:cc="http://web.resource.org/cc/" xmlns:dc="http://purl.org/dc/elements/1.1/" xmlns:inkscape="http://www.inkscape.org/namespaces/inkscape" xmlns:rdf="http://www.w3.org/1999/02/22-rdf-syntax-ns#" xmlns:sodipodi="http://inkscape.sourceforge.net/DTD/sodipodi-0.dtd" xmlns:svg="http://www.w3.org/2000/svg"
	 xmlns="http://www.w3.org/2000/svg" xmlns:xlink="http://www.w3.org/1999/xlink" x="0px" y="0px" viewBox="0 0 111.2 112.4"
	 style="enable-background:new 0 0 111.2 112.4;" xml:space="preserve">
<style type="text/css">
	.st0{fill:url(#path1948_1_);}
	.st1{fill:url(#path1950_1_);}
</style>
<sodipodi:namedview  bordercolor="#666666" borderopacity="1.0" gridtolerance="10.0" guidetolerance="10.0" height="40mm" id="base" inkscape:current-layer="svg2" inkscape:cx="250.73166" inkscape:cy="67.50975" inkscape:pageopacity="0.0" inkscape:pageshadow="2" inkscape:window-height="882" inkscape:window-width="1233" inkscape:window-x="0" inkscape:window-y="6" inkscape:zoom="2.1461642" objecttolerance="10.0" pagecolor="#ffffff" units="mm" width="210mm">
	</sodipodi:namedview>
<linearGradient id="path1948_1_" gradientUnits="userSpaceOnUse" x1="-95.7715" y1="89.4498" x2="13.2448" y2="-4.344" gradientTransform="matrix(0.5625 0 0 -0.568 51.1483 54.0053)">
	<stop  offset="0" style="stop-color:#5A9FD4"/>
	<stop  offset="1" style="stop-color:#306998"/>
</linearGradient>
<path id="path1948" class="st0" d="M54.9,0c-4.6,0-9,0.4-12.8,1.1C30.8,3.1,28.7,7.3,28.7,15v10.2h26.8v3.4H28.7H18.6
	c-7.8,0-14.6,4.7-16.8,13.6c-2.5,10.2-2.6,16.6,0,27.2c1.9,7.9,6.5,13.6,14.2,13.6h9.2V70.8c0-8.8,7.7-16.7,16.8-16.7h26.8
	c7.5,0,13.4-6.1,13.4-13.6V15c0-7.3-6.1-12.7-13.4-13.9C64.3,0.3,59.5,0,54.9,0z M40.4,8.2c2.8,0,5,2.3,5,5.1c0,2.8-2.3,5.1-5,5.1
	c-2.8,0-5-2.3-5-5.1C35.4,10.5,37.6,8.2,40.4,8.2z"/>
<linearGradient id="path1950_1_" gradientUnits="userSpaceOnUse" x1="55.3912" y1="-61.112" x2="16.4615" y2="-6.0333" gradientTransform="matrix(0.5625 0 0 -0.568 51.1483 54.0053)">
	<stop  offset="0" style="stop-color:#FFD43B"/>
	<stop  offset="1" style="stop-color:#FFE873"/>
</linearGradient>
<path id="path1950" class="st1" d="M85.6,28.7v11.9c0,9.2-7.8,17-16.8,17H42.1c-7.3,0-13.4,6.3-13.4,13.6v25.5
	c0,7.3,6.3,11.5,13.4,13.6c8.5,2.5,16.6,2.9,26.8,0c6.8-2,13.4-5.9,13.4-13.6V86.5H55.5v-3.4h26.8h13.4c7.8,0,10.7-5.4,13.4-13.6
	c2.8-8.4,2.7-16.5,0-27.2c-1.9-7.8-5.6-13.6-13.4-13.6H85.6z M70.6,93.3c2.8,0,5,2.3,5,5.1c0,2.8-2.3,5.1-5,5.1c-2.8,0-5-2.3-5-5.1
	C65.5,95.6,67.8,93.3,70.6,93.3z"/>
</svg>
